X:106
T: IM FELDE SCHLEICH ICH STILL UND WILD
N: B0594
O: Europa, Mitteleuropa, Deutschland
R: Staende -, Jaeger - Lied
M: 6/8
L: 1/8
K: Eb
B, | E2EG2G | B2BG2
G | E2EF2F | G4z
B | B2FF2B | B2GG2
e | B2GE2F | G4z

@@@ Tune index: 2324
